svg/u26f4.svg

<svg viewBox="0 0 128 128" xmlns="http://www.w3.org/2000/svg">
  <g>
    <polygon points="61.92,30.93 83.19,34.7 83.58,22.99 62.37,18.44 " fill="#94D1E0"/>
    <path d="M112.16,50.26l0.3-12.16l-55.59-9.66L54.4,83.56l64.47,5.64l1.27-37.88L112.16,50.26z" fill="#2F7889"/>
    <path d="M112.16,49.71l0.3-12.16l-55.59-9.66L55.2,72.93l64.03,6.03l0.91-28.17L112.16,49.71z M63.12,68.87 l-4.48-0.45l0.34-6.73l4.47,0.53L63.12,68.87z M63.74,56.2l-4.46-0.53l0.38-7.45l4.45,0.64L63.74,56.2z M64.4,42.83l-4.44-0.64 l0.38-7.57l4.42,0.78L64.4,42.83z M70.57,69.61l-4.46-0.44l0.32-6.59l4.43,0.52L70.57,69.61z M71.15,57.07l-4.41-0.52l0.36-7.26 l4.38,0.63L71.15,57.07z M71.75,43.89l-4.36-0.63l0.36-7.35l4.33,0.76L71.75,43.89z M78.02,70.36l-4.45-0.44l0.3-6.46l4.43,0.52 L78.02,70.36z M78.55,57.95l-4.41-0.52l0.32-7.07l4.38,0.63L78.55,57.95z M79.1,44.95l-4.36-0.63l0.33-7.12l4.33,0.76L79.1,44.95z M85.48,71.1l-4.45-0.44l0.27-6.33l4.43,0.52L85.48,71.1z M85.96,58.82l-4.41-0.52l0.29-6.88l4.38,0.63L85.96,58.82z M86.46,46.01 l-4.36-0.63l0.29-6.9l4.33,0.76L86.46,46.01z M92.95,71.85l-4.47-0.45l0.24-6.19l4.45,0.53L92.95,71.85z M93.39,59.7l-4.44-0.52 l0.26-6.69l4.42,0.64L93.39,59.7z M93.86,47.08l-4.41-0.64l0.26-6.68l4.39,0.77L93.86,47.08z M100.4,72.59l-4.45-0.44l0.22-6.06 l4.43,0.52L100.4,72.59z M100.8,60.58l-4.41-0.52l0.24-6.5l4.38,0.63L100.8,60.58z M101.21,48.14l-4.36-0.63l0.24-6.45l4.33,0.76 L101.21,48.14z M107.85,73.33l-4.45-0.44l0.2-5.92l4.43,0.52L107.85,73.33z M108.2,61.45l-4.41-0.52l0.21-6.31l4.38,0.63 L108.2,61.45z M108.57,49.2l-4.36-0.63l0.21-6.23l4.34,0.76L108.57,49.2z M115.3,74.08l-4.45-0.44l0.17-5.79l4.43,0.52L115.3,74.08 z M115.61,62.33l-4.41-0.52l0.18-6.12l4.38,0.63L115.61,62.33z" fill="#94D1E0"/>
    <polygon points="62.37,18.44 47.69,19.35 47.7,28.22 39.3,28.3 38.26,42.6 32.88,42.64 17.65,82.82 54.66,83.98 57.49,28 62.25,28.77 " fill="#DFECF5"/>
    <polygon points="30.94,57.34 52.4,57.65 52.4,47.36 34.81,47.36 " fill="#82AEC0"/>
    <polygon points="22.82,81.37 52.4,83.02 49.51,61.14 31.7,60.97 " fill="#82AEC0"/>
    <polygon points="49.51,61.14 31.77,60.81 29.54,65.94 41.92,82.44 52.4,83.02 " fill="#2F7889"/>
    <polygon points="34.81,47.36 52.4,53.45 52.4,47.36 " fill="#2F7889"/>
    <path d="M53.72,77.55c6.66,0.54,14.65,1.23,20.43,1.8 l47.08,4.14c0.84,0.08,1.47,0.83,1.4,1.67l-0.3,3.71" fill="none" stroke="#82AEC0" stroke-width="2" stroke-miterlimit="10"/>
    <path d="M8.23,80.85l0-4.57 c0-0.8,0.68-1.44,1.48-1.38c0,0,24.24,0.77,45.47,2.77" fill="none" stroke="#94D1E0" stroke-width="2" stroke-linecap="round" stroke-miterlimit="10"/>
    <g>
      <polygon points="46.38,33.99 42.3,34.11 41.72,41.68 45.83,41.6 " fill="#82AEC0"/>
      <polygon points="48.98,33.92 48.43,41.64 52.91,41.55 53.4,33.79 " fill="#82AEC0"/>
    </g>
    <path d="M84.06,24.31l-21.7-4.66l-15.67,0.83c-0.65,0.03-1.2-0.49-1.2-1.14v-0.61c0-0.6,0.47-1.1,1.07-1.14 l16.03-0.98l21.97,4.72c0.52,0.11,0.88,0.58,0.86,1.11l-0.04,0.85C85.34,23.97,84.72,24.45,84.06,24.31z" fill="#2167A1"/>
    <g>
      <polygon points="53.99,22.33 50.92,22.47 50.92,26.48 53.92,26.43 " fill="#82AEC0"/>
      <polygon points="55.99,22.33 55.93,26.39 59.37,26.34 59.37,22.33 " fill="#82AEC0"/>
    </g>
    <polygon points="77.32,24.92 77.24,29.45 81.22,30.27 81.22,25.72 " fill="#2F7889"/>
    <line fill="none" stroke="#82AEC0" stroke-width="2" stroke-miterlimit="10" x1="66.62" x2="66.62" y1="78.64" y2="83.97"/>
    <line fill="none" stroke="#82AEC0" stroke-width="2" stroke-miterlimit="10" x1="86.38" x2="86.38" y1="80.41" y2="85.14"/>
    <line fill="none" stroke="#82AEC0" stroke-width="2" stroke-miterlimit="10" x1="104.29" x2="104.29" y1="82" y2="87.26"/>
    <line fill="none" stroke="#94D1E0" stroke-width="2" stroke-miterlimit="10" x1="31.7" x2="31.7" y1="81.14" y2="75.93"/>
    <g>
      <polygon points="69.16,23.24 64.77,22.33 64.77,26.88 69.07,27.76 " fill="#2F7889"/>
      <polygon points="71.11,23.64 71.02,28.17 75.29,29.05 75.37,24.52 " fill="#2F7889"/>
    </g>
    <path d="M5.92,80.41c0,0-2.13-0.1-1.93,2c0,0,0.27,16.44,4.24,26.01C12.89,119.65,21.62,124,30.06,124 c6.72,0,82.95,0,82.95,0c3.27,0,5.45-2.79,8.1-9.42c1.72-4.31,2.61-19.52,2.87-24.39c0.04-0.78-0.55-1.45-1.33-1.51 C122.64,88.68,49.62,80.31,5.92,80.41z" fill="#2167A1"/>
    <path d="M21.9,56.1l38.14,0.46c0,0-0.26,4.82-4.5,4.82s-29.69-0.67-29.69-0.67 C21.9,60.21,21.9,56.1,21.9,56.1z" fill="#DFECF5"/>
    <path d="M116.78,63.28v4.9c0.87,0.09,1.57,0.16,2.02,0.19c4.22,0.36,4.89-4.42,4.89-4.42L116.78,63.28z" fill="#94D1E0"/>
  </g>
</svg>

<svg viewBox="0 0 128 128" xmlns="http://www.w3.org/2000/svg">
  <defs/>
  <path d="M61.92,30.93 L83.19,34.7 L83.58,22.99 L62.37,18.44 Z" fill="#94D1E0"/>
  <path d="M112.16,50.26 L112.46,38.1 L56.87,28.44 L54.4,83.56 L118.87,89.2 L120.14,51.32 L112.16,50.26 Z" fill="#2F7889"/>
  <path d="M112.16,49.71 L112.46,37.55 L56.87,27.89 L55.2,72.93 L119.23,78.96 L120.14,50.79 L112.16,49.71 Z M63.12,68.87 L58.64,68.42 L58.98,61.69 L63.45,62.22 L63.12,68.87 Z M63.74,56.2 L59.28,55.67 L59.66,48.22 L64.11,48.86 L63.74,56.2 Z M64.4,42.83 L59.96,42.19 L60.34,34.62 L64.76,35.4 L64.4,42.83 Z M70.57,69.61 L66.11,69.17 L66.43,62.58 L70.86,63.1 L70.57,69.61 Z M71.15,57.07 L66.74,56.55 L67.1,49.29 L71.48,49.92 L71.15,57.07 Z M71.75,43.89 L67.39,43.26 L67.75,35.91 L72.08,36.67 L71.75,43.89 Z M78.02,70.36 L73.57,69.92 L73.87,63.46 L78.3,63.98 L78.02,70.36 Z M78.55,57.95 L74.14,57.43 L74.46,50.36 L78.84,50.99 L78.55,57.95 Z M79.1,44.95 L74.74,44.32 L75.07,37.2 L79.4,37.96 L79.1,44.95 Z M85.48,71.1 L81.03,70.66 L81.3,64.33 L85.73,64.85 L85.48,71.1 Z M85.96,58.82 L81.55,58.3 L81.84,51.42 L86.22,52.05 L85.96,58.82 Z M86.46,46.01 L82.1,45.38 L82.39,38.48 L86.72,39.24 L86.46,46.01 Z M92.95,71.85 L88.48,71.4 L88.72,65.21 L93.17,65.74 L92.95,71.85 Z M93.39,59.7 L88.95,59.18 L89.21,52.49 L93.63,53.13 L93.39,59.7 Z M93.86,47.08 L89.45,46.44 L89.71,39.76 L94.1,40.53 L93.86,47.08 Z M100.4,72.59 L95.95,72.15 L96.17,66.09 L100.6,66.61 L100.4,72.59 Z M100.8,60.58 L96.39,60.06 L96.63,53.56 L101.01,54.19 L100.8,60.58 Z M101.21,48.14 L96.85,47.51 L97.09,41.06 L101.42,41.82 L101.21,48.14 Z M107.85,73.33 L103.4,72.89 L103.6,66.97 L108.03,67.49 L107.85,73.33 Z M108.2,61.45 L103.79,60.93 L104,54.62 L108.38,55.25 L108.2,61.45 Z M108.57,49.2 L104.21,48.57 L104.42,42.34 L108.76,43.1 L108.57,49.2 Z M115.3,74.08 L110.85,73.64 L111.02,67.85 L115.45,68.37 L115.3,74.08 Z M115.61,62.33 L111.2,61.81 L111.38,55.69 L115.76,56.32 L115.61,62.33 Z" fill="#94D1E0"/>
  <path d="M62.37,18.44 L47.69,19.35 L47.7,28.22 L39.3,28.3 L38.26,42.6 L32.88,42.64 L17.65,82.82 L54.66,83.98 L57.49,28 L62.25,28.77 Z" fill="#DFECF5"/>
  <path d="M30.94,57.34 L52.4,57.65 L52.4,47.36 L34.81,47.36 Z" fill="#82AEC0"/>
  <path d="M22.82,81.37 L52.4,83.02 L49.51,61.14 L31.7,60.97 Z" fill="#82AEC0"/>
  <path d="M49.51,61.14 L31.77,60.81 L29.54,65.94 L41.92,82.44 L52.4,83.02 Z" fill="#2F7889"/>
  <path d="M34.81,47.36 L52.4,53.45 L52.4,47.36 Z" fill="#2F7889"/>
  <path d="M53.803,76.553 L61.71,77.213 L74.241,78.354 L121.318,82.494 Q123.836,82.734 123.627,85.243 L123.327,88.951 L121.333,88.789 L121.633,85.077 Q121.678,84.537 121.142,84.486 L74.059,80.346 L61.544,79.207 L53.637,78.547 Z" fill="#82AEC0"/>
  <path d="M7.23,80.85 L7.23,76.28 Q7.23,75.245 7.987,74.537 Q8.74,73.833 9.761,73.901 Q34.019,74.672 55.274,76.674 Q55.772,76.721 55.997,76.994 Q56.222,77.266 56.176,77.764 Q56.082,78.759 55.086,78.666 Q33.885,76.668 9.678,75.899 L9.657,75.899 L9.635,75.897 Q9.474,75.885 9.353,75.998 Q9.23,76.113 9.23,76.28 L9.23,80.85 Q9.23,81.85 8.23,81.85 Q7.23,81.85 7.23,80.85 Z" fill="#94D1E0"/>
  <path d="M46.38,33.99 L42.3,34.11 L41.72,41.68 L45.83,41.6 Z" fill="#82AEC0"/>
  <path d="M48.98,33.92 L48.43,41.64 L52.91,41.55 L53.4,33.79 Z" fill="#82AEC0"/>
  <path d="M84.06,24.31 L62.36,19.65 L46.69,20.48 C46.04,20.51 45.49,19.99 45.49,19.34 L45.49,18.73 C45.49,18.13 45.96,17.63 46.56,17.59 L62.59,16.61 L84.56,21.33 C85.08,21.44 85.44,21.91 85.42,22.44 L85.38,23.29 C85.34,23.97 84.72,24.45 84.06,24.31 Z" fill="#2167A1"/>
  <path d="M53.99,22.33 L50.92,22.47 L50.92,26.48 L53.92,26.43 Z" fill="#82AEC0"/>
  <path d="M55.99,22.33 L55.93,26.39 L59.37,26.34 L59.37,22.33 Z" fill="#82AEC0"/>
  <path d="M77.32,24.92 L77.24,29.45 L81.22,30.27 L81.22,25.72 Z" fill="#2F7889"/>
  <path d="M67.62,78.64 L67.62,83.97 L65.62,83.97 L65.62,78.64 L67.62,78.64 Z" fill="#82AEC0"/>
  <path d="M87.38,80.41 L87.38,85.14 L85.38,85.14 L85.38,80.41 L87.38,80.41 Z" fill="#82AEC0"/>
  <path d="M105.29,82 L105.29,87.26 L103.29,87.26 L103.29,82 L105.29,82 Z" fill="#82AEC0"/>
  <path d="M30.7,81.14 L30.7,75.93 L32.7,75.93 L32.7,81.14 L30.7,81.14 Z" fill="#94D1E0"/>
  <path d="M69.16,23.24 L64.77,22.33 L64.77,26.88 L69.07,27.76 Z" fill="#2F7889"/>
  <path d="M71.11,23.64 L71.02,28.17 L75.29,29.05 L75.37,24.52 Z" fill="#2F7889"/>
  <path d="M5.92,80.41 C5.92,80.41 3.79,80.31 3.99,82.41 C3.99,82.41 4.26,98.85 8.23,108.42 C12.89,119.65 21.62,124 30.06,124 C36.78,124 113.01,124 113.01,124 C116.28,124 118.46,121.21 121.11,114.58 C122.83,110.27 123.72,95.06 123.98,90.19 C124.02,89.41 123.43,88.74 122.65,88.68 C122.64,88.68 49.62,80.31 5.92,80.41 Z" fill="#2167A1"/>
  <path d="M21.9,56.1 L60.04,56.56 C60.04,56.56 59.78,61.38 55.54,61.38 C51.3,61.38 25.85,60.71 25.85,60.71 C21.9,60.21 21.9,56.1 21.9,56.1 Z" fill="#DFECF5"/>
  <path d="M116.78,63.28 L116.78,68.18 C117.65,68.27 118.35,68.34 118.8,68.37 C123.02,68.73 123.69,63.95 123.69,63.95 L116.78,63.28 Z" fill="#94D1E0"/>
</svg>
